!!!COM: Dunstable, John
!!!OTL: Salve Regina Mater mire
!!!ONM: No. 45
!!!YOR: from: "Musica Britannica" Vol. 8, edited by Manfred F. Bukofzer,
!!!YOR: 2nd rev. ed. (prepared by Margaret Bent, Ian Bent & Brian Trowell), pp.113-115
!!!YOO: Royal Musical Association (London)
!!!YOY: 1970
**kern	**kern	**kern
*ICvox	*ICvox	*ICvox
! tenor	! contratenor	! discantus
*M3/4	*M3/4	*M3/4
=1	=1	=1
*>A	*>A	*>A
!! Section 'A'; (O) mensuration.
2.r	[2.d	2.d
=2	=2	=2
2.r	2.d]	4.d
.	.	8e
.	.	4f
=3	=3	=3
2.r	4B-x	8.g
.	.	16f
.	4A	2a
.	[4d	.
=4	=4	=4
2.r	4d]	8f
.	.	8d
.	2c#x	4.e
.	.	8f
=5	=5	=5
2.r	2.d	4d
.	.	2a
=6	=6	=6
2.r	4B-x	2g
.	2A	.
.	.	4f#x
=7	=7	=7
2.r	2.G	2g
.	.	4e
=8	=8	=8
2.r	2.D	4r
.	.	4.a
.	.	8f
=9	=9	=9
2.r	4E	4g
.	4D	4a
.	4F	8f
.	.	8d
=10	=10	=10
2.r	4G	8e
.	.	4d
.	2E	.
.	.	8B
.	.	8c#x
.	.	16B
.	.	16c#x
=11	=11	=11
2.r	4D	2d
.	2G	.
.	.	4e
=12	=12	=12
2.r	4A	4c
.	2G	8.d
.	.	16c
.	.	4B
=13	=13	=13
2.r	2A	8.A
.	.	16B
.	.	8.c
.	.	16d
.	4G	8.e
.	.	16d
=14	=14	=14
2.r	4F	8d
.	.	16c
.	.	16d
.	2E	8e
.	.	8B
.	.	4c#x
=15	=15	=15
*>B	*>B	*>B
!! Section 'B'; (O) mensuration.
[2.D	2.D	2.d
=16	=16	=16
2.D_	2.A	2.r
=17	=17	=17
2.D_	2A	2a
.	8B-x	4a
.	8c	.
=18	=18	=18
2.D]	2d	4b-
.	.	4.a
.	4d	.
.	.	8f
=19	=19	=19
2.G	2B	4e
.	.	8g
.	.	8f
.	4B	8e
.	.	16f
.	.	16d
=20	=20	=20
2.A	4e	4c
.	4e	4c
.	4e	4c
=21	=21	=21
[2.G	4B	2d
.	4G	.
.	8c	[4e
.	8d	.
=22	=22	=22
2.G]	4.c	4e]
.	.	8f
.	4B	4e
.	8A	8d
=23	=23	=23
2.F	2c	2.f
.	[4d	.
=24	=24	=24
[2.F	4d]	2.r
.	2c	.
=25	=25	=25
2.F_	2f	2a
.	4f	4cc
=26	=26	=26
2.F]	4.f	4cc
.	.	4a
.	8e	.
.	8d	8a
.	8c	8g
=27	=27	=27
2.c	4c	2e
.	2C	.
.	.	4e
=28	=28	=28
[2.A	2c	2e
.	8A	4c
.	8B	.
=29	=29	=29
2.A_	4c	4r
.	2F	4c
.	.	4d
=30	=30	=30
2.A]	2.c	2e
.	.	4f
=31	=31	=31
4G	4.d	4g
4F	.	4a
.	8c	.
4D	8B	8f
.	8A	8d
=32	=32	=32
4F	8.A	8c
.	.	4e
.	16G	.
2E	8A	.
.	4G	8d
.	.	8c#x
.	8F#x	16B
.	.	16c#x
=33	=33	=33
2.D	4A	2d
.	4r	.
.	4d	4r
=34	=34	=34
2.F	4c	4a
.	4c	4a
.	4c	4a
=35	=35	=35
[2.A	[2.c	4a
.	.	4g
.	.	8f
.	.	8e
=36	=36	=36
2.A]	2.c]	2e
.	.	4c
=37	=37	=37
2.c	4.C	4.e
.	8C	8e
.	4C	4e
=38	=38	=38
2.d	8G	8d
.	8G	8d
.	2D	2f
=39	=39	=39
2A	2F	4a
.	.	4cc
[4c	4F	8b-x
.	.	8a
=40	=40	=40
4c]	4c	4.a
2B-x	2d	.
.	.	4g
.	.	8f
=41	=41	=41
[2.A	4e	2.a
.	4.f	.
.	8e	.
=42	=42	=42
2.A]	8c	2.r
.	8d	.
.	8e	.
.	4c	.
.	8B	.
=43	=43	=43
2.D	4.d	4.a
.	8d	8a
.	4d	4a
=44	=44	=44
2.F	4d	4a
.	8c	8a
.	8c	8a
.	4c	4a
=45	=45	=45
[2.G	4r	4.g
.	2e	.
.	.	8f
.	.	8e
.	.	8d
=46	=46	=46
2.G]	2.B	4e
.	.	8d
.	.	8c
.	.	4B
=47	=47	=47
[2.A	[2.e	2A
.	.	[4c
=48	=48	=48
2.A]	4e]	4c]
.	2c	2e
=49	=49	=49
2.G	2d	2g
.	4r	4e
=50	=50	=50
2d	4.d	4r
.	.	2a
.	8e	.
[4B-x	4f	.
=51	=51	=51
4B-x]	8d	2g
.	16c	.
.	16d	.
2A	8e	.
.	4c#x	.
.	.	4f#x
.	8B	.
=52	=52	=52
2.G	8d	[2.g
.	4e	.
.	8d	.
.	4B	.
=53	=53	=53
[2.c	4c	4g]
.	2C	2e
=54	=54	=54
2.c]	2F	4.a
.	.	8g
.	8r	8f
.	8C	8e
=55	=55	=55
2d	4G	2d
.	4B	.
[4c	4c	4e
=56	=56	=56
4c]	4e	2g
2B-x	2d	.
.	.	[4f
=57	=57	=57
2A	2c	4f]
.	.	2e
4G	4B	.
=58	=58	=58
4F	4.A	2d
2E	.	.
.	4G	.
.	.	4c#x
.	8F#x	.
=59	=59	=59
[2.D	[2.A	[2.d
=59a	=59a	=59a
2.D]	2.A]	2.d]
=60	=60	=60
*>C	*>C	*>C
!! Section 'C'; (C) mensuration.
*M4/4	*M4/4	*M4/4
2E	4.B	2g
.	8c#x	.
2D	2d	4a
.	.	8f
.	.	8e
=61	=61	=61
4G	4B	8d
.	.	8.g
4A	8A	.
.	.	16e
.	8c	8f#x
2G	4d	4g
.	4e	8r
.	.	8g
=62	=62	=62
2D	4d	4.a
.	4d	.
.	.	4.f
4.d	4.D	.
.	.	8d
8c	[8A	8e
=63	=63	=63
8A	8A]	8c
8G	8B	8d
8A	8c	4f
8F	8A	.
8G	8B	16e
.	.	16d
8D	8A	4d
4E	8G	.
.	16F#x	8c#x
.	16G	.
=64	=64	=64
1D	2A	2d
.	8B-	2r
.	8A	.
.	4F	.
=65	=65	=65
2d	2D	4f
.	.	4.a
8c	8F	.
8B	8G	8g
8c	8A	8e
8d	8D	8f
=66	=66	=66
4B	4d	8d
.	.	8.g
4A	4c	.
.	.	16e
.	.	8f#x
2G	4d	4g
.	8B-x	8r
.	[8G	8e
=67	=67	=67
8B-	8G]	8d
4A	8A	8c
.	8c	4e
8G	8B-x	.
8F	4A	8d
8D	.	4d
4E	4G	.
.	.	8c#x
=68	=68	=68
2D	4A	4d
.	4d	8r
.	.	8a
4E	4r	4g
4F	4c	4a
=69	=69	=69
*M3/4	*M3/4	*M3/4
8A	8A	8f
8G	8B-x	4g
4B-x	4d	.
.	.	8f
4G	4Bnx	4e
=70	=70	=70
*M4/4	*M4/4	*M4/4
1F	4c	4f
.	8r	8d
.	8A	2c
.	2A	.
.	.	8d
=71	=71	=71
2C	2c	2e
4D	4A	4f
4C	4c	4g
=72	=72	=72
4G	2B-x	8e
.	.	4d
4B-x	.	.
.	.	8f
4c	8r	4e
.	8A	.
4A	4c	8r
.	.	8f
=73	=73	=73
8r	4B-x	4g
8G	.	.
8A	8c	8.f
8F	8A	.
.	.	16d
8G	8G	8e
8D	8A	4d
4E	8G	.
.	16F#x	8c#x
.	16G	.
=74	=74	=74
1D	1A	1d
=75	=75	=75
*>D	*>D	*>D
!! Section 'D'; (O) mensuration.
*M3/4	*M3/4	*M3/4
2.r	2A	2a
.	4c	4g
=76	=76	=76
2.r	4d	4f
.	4e	4g
.	4c	4e
=77	=77	=77
2.r	4.d	4d
.	.	8f
.	8B-x	8g
.	[4c	8a
.	.	8b-x
=78	=78	=78
2.r	4c]	4.g
.	2A	.
.	.	8e
.	.	4f#x
=79	=79	=79
2.r	4G	4.g
.	4D	.
.	.	8f
.	[4F	8e
.	.	8d
=80	=80	=80
2.r	4F]	4.d
.	2E	.
.	.	8B
.	.	4c#x
=81	=81	=81
2.r	2D	4d
.	.	4r
.	4r	8d
.	.	8e
=82	=82	=82
2.r	8A	4f
.	8B	.
.	4c	8e
.	.	4g
.	8B	.
.	8A	8f
=83	=83	=83
2.r	8c	4e
.	4A	.
.	.	8c
.	8F	8A
.	4G	4Bn
=84	=84	=84
2.r	4A	8A
.	.	8.c
.	8G	.
.	.	16B
.	8F	8d
.	4E	8B
.	.	8c#x
=85	=85	=85
2.r	4D	4.d
.	4G	.
.	.	4e
.	4A	.
.	.	8f
=86	=86	=86
2.r	4G	4g
.	4D	8f
.	.	8f
.	4G	8e
.	.	[8g
=87	=87	=87
2.r	4c	8g]
.	.	8e
.	4B-x	8d
.	.	4f
.	8A	.
.	[8G	8g
=88	=88	=88
2.r	8G]	4e
.	4A	.
.	.	8f
.	8F	4d
.	4E	.
.	.	8c#x
=89	=89	=89
*>E	*>E	*>E
!! Section 'E'; (O) mensuration.
[2.D	4D	2.d
.	8r	.
.	4d	.
.	8A	.
=90	=90	=90
2.D]	4B-x	2.r
.	8A	.
.	8.F	.
.	16G	.
.	8A	.
=91	=91	=91
2d	2D	2d
4c	4A	[4e
=92	=92	=92
4A	4r	4e]
4G	4d	2g
[4c	4e	.
=93	=93	=93
4c]	4c	2a
2B-x	2d	.
.	.	4g
=94	=94	=94
[2.A	2e	8a
.	.	16g
.	.	16a
.	.	8b-x
.	.	8a
.	4c	8g
.	.	8f
=95	=95	=95
2.A]	2c	8e
.	.	16d
.	.	16e
.	.	8f
.	.	8e
.	4A	4c
=96	=96	=96
[2.G	2B	4d
.	.	8d
.	.	16c
.	.	16d
.	4r	8e
.	.	8d
=97	=97	=97
2.G]	4d	4B
.	8c	4.e
.	4B	.
.	8A	8d
=98	=98	=98
4F	4A	4.d
2E	4B	.
.	.	4c#x
.	4G	.
.	.	8B
=99	=99	=99
2.D	4A	4d
.	2d	4r
.	.	4f
=100	=100	=100
4E	4c#x	4g
4D	4d	4a
4G	4B	8g
.	.	8e
=101	=101	=101
4F	2A	8d
.	.	16c
.	.	16d
2E	.	8e
.	.	8B
.	4G	8c#x
.	.	16B
.	.	16c#x
=102	=102	=102
2D	4A	4d
.	2d	4a
4G	.	4b-x
=103	=103	=103
4B-	4d	2g
2A	4e	.
.	4c	4f#x
=104	=104	=104
2G	4.d	4g
.	.	8a
.	8B	4b
4E	4c#x	.
.	.	8g
=105	=105	=105
2D	2d	2a
4G	4e	4g
=106	=106	=106
4A	8.c	4f
.	16A	.
8G	8B	8e
8F	4A	4f
8D	.	.
8F	8F	8d
=107	=107	=107
8E	4G	8c
4G	.	8d
.	8B	8e
8D	8A	8.d
4E	8G	.
.	.	16B
.	16F#x	8c#x
.	16G	.
=108	=108	=108
[2.D	[2.A	[2.d
=109	=109	=109
2.D]	2.A]	2.d]
==	==	==
*-	*-	*-
!!!ENC: Mark Laxton
!!!EDD: Mark Laxton
!!!YEC: Mark Laxton, 1987
!!!EMD: Reference records added by D. Huron, 2001
!!!EEV: 1.1
